X:29
T: ACH WIE ISTS MOEGLICH DANN
N: F0090
O: Europa, Mitteleuropa, Deutschland, Thueringen
R: Liebes - Lied
M: 2/4
L: 1/8
K: Bb
 | d2BG | FBB2 |
c2Bc | dGF2 |
F2=EF | Ged2 |
c2dc | F2z2 |
c2dc | BGF2 |
d2ed | Gdc2 |
F2GF | Fed2 |
c2GA | B2z2

@@@ Tune index: 5460
